X: 1800
T:Martin Wynne's #2b
N:IrTrad, 6/99, Jeffrey Erickson <jeerickson@DAVIDSON.EDU>
M:2/2
L:1/8
Q:200
C:Martin Wynne
S:unknown, via Brian Conway
R:reel
K:BMin
|:BA|FBAF EGFE|DB, {C}(3B,A,B, DB,A,=C|B,E {F}(3EDE FEDE|FABc dcBA|
FAFA E2 FE|DB, {C}(3B,A,B, DB,A,=C|B,E {F}(3EDE FEDE|FB {c}BA B2:|
|:BA|FBAF A2 dA|Bcde fdde|f2 af egfe|dfed BAFE|
FBAF A2 dA|Bcde fdde|{g}(3fef fd {f}(3ede ec|dBAF B2:|
